X: 10845
T: Dregs Of Birch, The
R: reel
M: 4/4
K: Gminor
d2 cB (3def gf|BdcB FGBc|(3def ba gf Bc|(3def dc BG GF|
d2 cB (3def ga|bagf b2 Bc|d2 dB c2 gf|fg B2 B4:|
g3a bagf|Bd2c BGGF|gfga b3 c'|bagf b2ab|
gfga bagf|Bd2c Bgfe|d2 dB c2 gf|fg B2 B4:|

